polaris-icons/icons/newicons/FileMinor.svg

<svg width="20" height="20" viewBox="0 0 20 20" fill="none" xmlns="http://www.w3.org/2000/svg">
<path d="M7 11.25C7 10.8358 7.33579 10.5 7.75 10.5H12.25C12.6642 10.5 13 10.8358 13 11.25C13 11.6642 12.6642 12 12.25 12H7.75C7.33579 12 7 11.6642 7 11.25Z" fill="black"/>
<path d="M7.75 13.5C7.33579 13.5 7 13.8358 7 14.25C7 14.6642 7.33579 15 7.75 15H10.5001C10.9143 15 11.2501 14.6642 11.2501 14.25C11.2501 13.8358 10.9143 13.5 10.5001 13.5H7.75Z" fill="black"/>
<path fill-rule="evenodd" clip-rule="evenodd" d="M4 4.75C4 3.23122 5.23122 2 6.75 2H10C10.1989 2 10.3897 2.07902 10.5303 2.21967L15.7803 7.46967C15.921 7.61032 16 7.80109 16 8V15.25C16 16.7688 14.7688 18 13.25 18H6.75C5.23122 18 4 16.7688 4 15.25V4.75ZM6.75 3.5C6.05964 3.5 5.5 4.05964 5.5 4.75V15.25C5.5 15.9404 6.05964 16.5 6.75 16.5H13.25C13.9404 16.5 14.5 15.9404 14.5 15.25V8.75H11C10.0335 8.75 9.25 7.9665 9.25 7V3.5H6.75ZM10.75 4.56066L13.4393 7.25H11C10.8619 7.25 10.75 7.13807 10.75 7V4.56066Z" fill="black"/>
</svg>

<svg viewBox="0 0 20 20" fill="none" xmlns="http://www.w3.org/2000/svg"><path d="M7 11.25a.75.75 0 0 1 .75-.75h4.5a.75.75 0 0 1 0 1.5h-4.5a.75.75 0 0 1-.75-.75Z" fill="#000"/><path d="M7.75 13.5a.75.75 0 0 0 0 1.5h2.75a.75.75 0 0 0 0-1.5h-2.75Z" fill="#000"/><path fill-rule="evenodd" clip-rule="evenodd" d="M4 4.75a2.75 2.75 0 0 1 2.75-2.75h3.25a.75.75 0 0 1 .53.22l5.25 5.25c.141.14.22.331.22.53v7.25a2.75 2.75 0 0 1-2.75 2.75h-6.5a2.75 2.75 0 0 1-2.75-2.75v-10.5Zm2.75-1.25c-.69 0-1.25.56-1.25 1.25v10.5c0 .69.56 1.25 1.25 1.25h6.5c.69 0 1.25-.56 1.25-1.25v-6.5h-3.5a1.75 1.75 0 0 1-1.75-1.75v-3.5h-2.5Zm4 1.06 2.69 2.69h-2.44a.25.25 0 0 1-.25-.25v-2.44Z" fill="#000"/></svg>
